assets/Hammer and pick/Flat/hammer_and_pick_flat.svg

<svg width="32" height="32" viewBox="0 0 32 32" fill="none" xmlns="http://www.w3.org/2000/svg">
<path d="M20.0549 17.0649L29.3449 7.77495C29.5449 7.57495 29.5449 7.25495 29.3449 7.04495L27.8949 5.59495C27.6949 5.39495 27.3749 5.39495 27.1649 5.59495L17.8749 14.8849C17.5549 15.2049 17.1149 15.3849 16.6549 15.3849C16.1849 15.3849 15.7249 15.5749 15.3949 15.9049L5.39492 25.9149C5.09492 26.2149 5.09492 26.7049 5.39492 27.0049L7.93492 29.5449C8.23492 29.8449 8.72492 29.8449 9.02492 29.5449L19.0349 19.5349C19.3649 19.2049 19.5549 18.7449 19.5549 18.2749C19.5549 17.8249 19.7349 17.3849 20.0549 17.0649Z" fill="#6D4534"/>
<path d="M16.4052 15.235L7.11516 5.94504C6.91516 5.74504 6.59516 5.74504 6.38516 5.94504L4.93516 7.40504C4.73516 7.60504 4.73516 7.92504 4.93516 8.13504L14.2252 17.425C14.5452 17.745 14.7252 18.185 14.7252 18.645C14.7252 19.115 14.9152 19.575 15.2452 19.905L24.8752 29.535C25.1752 29.835 25.6652 29.835 25.9652 29.535L28.5052 26.995C28.8052 26.695 28.8052 26.205 28.5052 25.905L18.8752 16.275C18.5452 15.945 18.0852 15.755 17.6152 15.755C17.1652 15.745 16.7252 15.555 16.4052 15.235Z" fill="#A56953"/>
<path d="M7.295 16.645L15.635 8.305C15.935 8.005 15.935 7.515 15.645 7.215L11.655 3.225C11.355 2.925 10.865 2.925 10.565 3.225L2.225 11.565C1.925 11.865 1.925 12.355 2.225 12.655L6.205 16.645C6.505 16.945 6.995 16.945 7.295 16.645Z" fill="#B4ACBC"/>
<path d="M18.995 8.305L26.775 16.085C27.385 16.695 28.375 16.695 28.985 16.075C29.205 15.855 29.355 15.565 29.415 15.245L29.915 12.395C30.225 10.625 29.655 8.805 28.375 7.525L24.075 3.225C23.775 2.925 23.285 2.925 22.985 3.225L18.995 7.215C18.695 7.515 18.695 8.005 18.995 8.305Z" fill="#B4ACBC"/>
</svg>

<svg xmlns="http://www.w3.org/2000/svg" width="32" height="32" fill="none"><path fill="#6D4534" d="m20.055 17.065 9.29-9.29c.2-.2.2-.52 0-.73l-1.45-1.45a.52.52 0 0 0-.73 0l-9.29 9.29c-.32.32-.76.5-1.22.5-.47 0-.93.19-1.26.52l-10 10.01c-.3.3-.3.79 0 1.09l2.54 2.54c.3.3.79.3 1.09 0l10.01-10.01c.33-.33.52-.79.52-1.26 0-.45.18-.89.5-1.21Z"/><path fill="#A56953" d="m16.405 15.235-9.29-9.29a.52.52 0 0 0-.73 0l-1.45 1.46c-.2.2-.2.52 0 .73l9.29 9.29c.32.32.5.76.5 1.22 0 .47.19.93.52 1.26l9.63 9.63c.3.3.79.3 1.09 0l2.54-2.54c.3-.3.3-.79 0-1.09l-9.63-9.63c-.33-.33-.79-.52-1.26-.52-.45-.01-.89-.2-1.21-.52Z"/><path fill="#B4ACBC" d="m7.295 16.645 8.34-8.34c.3-.3.3-.79.01-1.09l-3.99-3.99c-.3-.3-.79-.3-1.09 0l-8.34 8.34c-.3.3-.3.79 0 1.09l3.98 3.99c.3.3.79.3 1.09 0ZM18.995 8.305l7.78 7.78c.61.61 1.6.61 2.21-.01.22-.22.37-.51.43-.83l.5-2.85c.31-1.77-.26-3.59-1.54-4.87l-4.3-4.3c-.3-.3-.79-.3-1.09 0l-3.99 3.99c-.3.3-.3.79 0 1.09Z"/></svg>
